!!!OTL: Nun adje, jetzt muss ich fort
!!!ARE: Europa, Mitteleuropa, Lothringen, Altripp
!!!SCT: D0005
!!!YEM: Copyright 1995, estate of Helmut Schaffrath.
**kern
*ICvox
*Ivox
*M3/2
*k[f#]
*G:
=1
{4g
4d
=2
4.g
8a
2b
4a
8g
8b
=3
2a
2r}
{4g
4d
=4
4.g
8a
2b
4a
8g
8b
=5
2a
4r}
{8g
8a
4b
4g
=6
4.dd
8ee
4dd
8cc
8b
4a
4g
=7
4.cc
8dd
4b}
{8a
8cc
4b
4a
=8
4.g
8a
4b
8cc
8a
4dd
8.dd
16cc
=9
2b
2r}
==
!!!AGN: Soldaten - Lied
!! Inzipit = entfernte Variante zum Lied  ??
!!!ONB: ESAC (Essen Associative Code) Database: DVA
!!!AMT: simple triple
!!!AIN: vox
!!!EED: Helmut Schaffrath
!!!EEV: 1.0
*-
